X:1
T:Helmsley, 87.87.87
T:Helmsley, 87.87.87
T:Traditional English Tune
T:Public Domain Courtesy of the Cyber Hymnal™
C:Traditional English Tune
Z:Public Domain
Z:Courtesy of the Cyber Hymnal™
%%score ( 1 2 ) ( 3 4 )
L:1/8
Q:1/4=115
M:2/2
K:G
V:1 treble 
V:2 treble 
V:3 bass 
V:4 bass 
V:1
 [DG]4 (B2 d2) | ([B,G]2 [DF]2) ([CE]2 D2) | ([CE]3 [DF] [EG]2) ([DF][CE]) | (D3 C) [G,B,]4 | %4
 [A,D]6 D2 | [DG]4 A4 | ([GB]2 [Bd]2) ([Ac]2 [GB]2) | ([GB]4 [FA]4) | [DG]4 (B2 d2) | %9
 ([B,G]2 [DF]2) ([CE]2 D2) | ([CE]3 [DF] [EG]2) ([DF][CE]) | (D3 C) [G,B,]4 | [B,D]6 D2 | %13
 [DG]4 A4 | ([GB]2 [Bd]2) ([Ac]2 [GB]2) | ([GB]4 [FA]4) | ([FA]3 [GB] [FA]2 [GB]2) | c4 [GB]4 | %18
 (G3 A [EG]2 [Ec]2) | ([GB]2 [FA]2) [EG]4 | (B3 c B2) [Dd]2 | ([Fc]2 [GB]2) A4 | G6 z2 (AB) | %23
 D4 [Gc]4 | [GB]4 [FA]4 | G8 |] %26
V:2
 x4 D4 | x6 D2 | x8 | A,4 x4 | x6 D2 | x4 (E2 F2) | x8 | x8 | x4 D4 | x6 D2 | x8 | A,4 x4 | x6 D2 | %13
 x4 (E2 F2) | x8 | x8 | x8 | (E2 F2) x4 | D4 x4 | x8 | E6 x2 | x4 (G2 F2) | (D4 D4) x2 | D4 x4 | %24
 x8 | G8 |] %26
V:3
 [G,B,]4 ([G,B,]2 [F,A,]2) | ([E,G,]2 [B,,B,]2) (G,A,) [G,,B,]2 | [C,G,]6 [C,G,]2 | %3
 [D,F,]4 [G,,G,]4 | ([D,F,]2 [E,G,]2 G,4) | [B,,G,]4 [A,,C]4 | [G,,B,]4 [C,E]4 | [D,D]8 | %8
 [G,B,]4 ([G,B,]2 [F,A,]2) | ([E,G,]2 [B,,B,]2) (G,A,) [G,,B,]2 | [C,G,]6 [C,G,]2 | %11
 [D,F,]4 [G,,G,]4 | ([D,F,]2 [E,G,]2 F,4) | [B,,G,]4 [A,,C]4 | [G,,B,]4 [C,E]4 | [D,D]8 | %16
 ([D,D]6 [B,,D]2) | [A,,C]4 [G,,D]4 | ([G,B,]3 [F,A,] [E,B,]2 [A,,C]2) | D3 [E,B,]4 x | %20
 (G,3 A, G,2) [B,,G,]2 | ([A,,A,]2 B,C) [D,D]4 | ([B,D]4 [A,C]2) [G,B,]2 x2 | [F,A,]4 (G,2 A,2) | %24
 (B,2 C2) (D2 C2) | [G,,G,B,]8 |] %26
V:4
 x8 | x4 C,2 x2 | x8 | x8 | x4 D,2 C,2 | x8 | x8 | x8 | x8 | x4 C,2 x2 | x8 | x8 | x4 D,2 C,2 | %13
 x8 | x8 | x8 | x8 | x8 | x8 | (B,,C, D,2) x4 | E,6 x2 | x2 G,,2 x4 | x10 | x4 E,4 | D,4 D,4 | %25
 x8 |] %26

